src/lib/packages/icons/src/assets/line/caret-left.svg

<svg width="24" height="24" viewBox="0 0 24 24" fill="none" xmlns="http://www.w3.org/2000/svg">
<path d="M15.5371 5.44615C14.7921 5.10015 13.941 5.215 13.314 5.744L8.12012 10.1241C7.56712 10.5911 7.25 11.2741 7.25 11.9991C7.25 12.7241 7.56712 13.4081 8.12012 13.8741L13.314 18.254C13.701 18.581 14.1731 18.7491 14.6531 18.7491C14.9511 18.7491 15.2521 18.6851 15.5371 18.5521C16.2851 18.2041 16.75 17.4741 16.75 16.6471V7.3502C16.75 6.5242 16.2851 5.79415 15.5371 5.44615ZM15.25 16.6481C15.25 17.0051 14.986 17.1552 14.905 17.1932C14.802 17.2402 14.54 17.326 14.281 17.109L9.08691 12.7291C8.87291 12.5481 8.75 12.2821 8.75 12.0001C8.75 11.7181 8.87291 11.4521 9.08691 11.2711L14.281 6.89122C14.54 6.67322 14.802 6.75999 14.905 6.80699C14.986 6.84499 15.25 6.99516 15.25 7.35216V16.6481Z" fill="currentColor"/>
</svg>

<svg xmlns="http://www.w3.org/2000/svg" width="24" height="24" fill="none"><path fill="currentColor" d="M15.537 5.446a2.065 2.065 0 0 0-2.223.298l-5.194 4.38A2.448 2.448 0 0 0 7.25 12c0 .725.317 1.41.87 1.875l5.194 4.38a2.068 2.068 0 0 0 2.223.298 2.08 2.08 0 0 0 1.213-1.905V7.35a2.08 2.08 0 0 0-1.213-1.904Zm-.287 11.202a.591.591 0 0 1-.345.545.57.57 0 0 1-.624-.084l-5.194-4.38A.953.953 0 0 1 8.75 12c0-.282.123-.548.337-.729l5.194-4.38a.568.568 0 0 1 .624-.084.591.591 0 0 1 .345.545v9.296Z"/></svg>
